X:1
T:Onward, Ever Onward!
T:Onward, Ever Onward!
T:Charles Hutchinson Gabriel
T:Marian Wendell Hubbard, 1903
T:Public Domain Courtesy of the Cyber Hymnal™
T:Public Domain Courtesy of the Cyber Hymnal™
C:Charles Hutchinson Gabriel
Z:Public Domain
Z:Courtesy of the Cyber Hymnal™
%%score ( 1 2 ) ( 3 4 )
L:1/8
Q:1/4=100
M:4/4
K:Eb
V:1 treble 
V:2 treble 
V:3 bass 
V:4 bass 
V:1
 [GB]2 [GB]2 [GB]>[FA] [EG]>[B,F] | [B,E]>[B,F] [B,E]>[B,F] [B,E]2 [EG]>[EG] | %2
w: 1.~Christ has need of sol- diers,|brave and staunch and true; In the|
w: 2.~Sa- tan would op- pose us,|tempt our souls to stray, But through|
w: 3.~Let us then with cour- age|press our up- ward way, With our|
 [DF]>[^C=E] [DF]>[_EG] [FA]>[A=c] [GB]>[FA] | ([EG]2 B6) | [GB]2 [GB]2 [GB]>[FA] [EG]>[B,F] | %5
w: front of bat- tle there’s a place for|you; *|Ev- er march- ing on- ward|
w: Him who loves us we shall win the|day; *|O- ther val- iant sol- diers|
w: gaze on Je- sus, ev- er watch and|pray; *|Bla- zoned on our ban- ner,|
 [B,E]>[B,F] [B,E]>[B,F] [B,E]2 [EG]>[EG] | [EF]>[EG] [E=A]>[DB] [Fc]>[Fe] [Ed]>[Ec] | B6 x2 || %8
w: through a world of sin, For the|heav’n- ly coun- try is the prize we|win.|
w: in the ag- es past, O’er this|up- ward path- way reached their home at|last.|
w: “Christ the Lord of all,” While we|shout, Ho- san- na, Sa- tan’s hosts must|fall.|
"^Refrain" [Ge]4 [Ad]4 x/ | [Ge]>[Gf] [Ae]>[Ac] [GB]2 (3(Bc)[EG] | [AB]2 [AB]4 (3(Bc)[DF] | %11
w: On- ward!|sol- diers of the cross, Doubt- * ing|ne- ver, trust- * ing|
w: |||
w: |||
 [GB]2 [GB]4 z2 | [Ge]4 [Ad]4 x5/2 | [Ge]>[Gf] [Ae]>[Ac] [GB]2 (3[GB][^F=A][GB] | %14
w: ev- er;|On- ward!|sol- diers of the cross, Trust- ing the|
w: |||
w: |||
 [Ac]2 (3[Fc][F=B][Fc] [Fd]2 (3[Ad][Ac][Ad] | [Ge]2 [Ae]2 [Ge]4 |] %16
w: Lord, heed- ing His Word, On- ward to|vic- to- ry!|
w: ||
w: ||
V:2
 x8 | x8 | x8 | x2 (G2 G4) | x8 | x8 | x8 | (D2 F2 A2 cd) || x17/2 | x6 G2 | x6 A2 | x8 | x21/2 | %13
 x8 | x8 | x8 |] %16
V:3
 E2 E2 E>B, B,>A, | [E,G,]>[E,A,] [E,G,]>[E,A,] [E,G,]2 [E,B,]>[E,B,] | %2
w: ~ ~ ~ ~ ~ ~|~ ~ ~ ~ ~ ~ ~|
 [B,,B,]>[B,,B,] [B,,B,]>[B,,B,] [B,,B,]2 [B,,B,]2 | ([E,B,]2 [=E,^C]2 D4) | E2 E2 E>B, B,>A, | %5
w: ~ ~ ~ ~ ~ ~|~ * *|~ ~ ~ ~ ~ ~|
 [E,G,]>[E,A,] [E,G,]>[E,A,] [E,G,]2 [E,B,]>[E,B,] | [F,=A,]>[F,B,] [F,C]>[F,B,] [F,A,]2 [F,A,]2 | %7
w: ~ ~ ~ ~ ~ ~ ~|~ ~ ~ ~ ~ ~|
 ([B,,B,]2 [B,,D]2 [B,,D]2) z2 || B,4 B,4 F,/ | (B,>=B,) (C>E) [E,E]2 (3:2:2E2 B, | %10
w: ~ * *|~ ~ On-|ward, * ev- * er on- ward!|
 D2 D4 (3:2:2D2 B, | E2 E4 x2 | B,4 B,4 G,<G,F,/ | (B,>=B,) (C>E) [E,E]2 (3[E,E][E,E][E,E] | %14
w: sol- diers of the|cross, ~|~ To the cause be|true, * ~ * ~ Je- sus calls|
 [A,E]2 (3[=A,E][A,D][A,C] B,2 (3[B,,B,][B,,B,][B,,B,] | [E,B,]2 [E,C]2 [E,B,]4 |] %16
w: for you, ~ ~ ~ On- ward, ev-|er on- ward!|
V:4
 E,>F, G,>A, B,2 B,,2 | x8 | x8 | x4 (F,2 B,,2) | (E,>F,) (G,>A,) B,2 B,,2 | x8 | x8 | x8 || %8
 E,>B,, E,>G, B,>A, G,3/2 x | E,2 E,2 x4 | F,>B,, D,>F, B,2 x2 | E,>B,, E,>G, (B,2 A,G,/F,/) | %12
 (E,>B,, E,>)G, B,3/2 x5 | E,2 E,2 x4 | x4 B,2 x2 | x8 |] %16

